app/static/Nail.svg

<svg height="132" viewBox="0 0 32 132" width="32" xmlns="http://www.w3.org/2000/svg" xmlns:xlink="http://www.w3.org/1999/xlink"><linearGradient id="a"><stop offset="0" stop-color="#97b4c5"/><stop offset=".18" stop-color="#90adbe"/><stop offset=".46" stop-color="#7b99ab"/><stop offset=".79" stop-color="#5a788d"/><stop offset="1" stop-color="#416076"/></linearGradient><linearGradient id="b" x1="50%" x2="50%" xlink:href="#a" y1="0%" y2="100%"/><linearGradient id="c" x1="900%" x2="900%" xlink:href="#a" y1="6374%" y2="6556%"/><linearGradient id="d" x1="594%" x2="1206%" xlink:href="#a" y1="3278%" y2="3278%"/><linearGradient id="e" x1="775%" x2="775%" xlink:href="#a" y1="100%" y2="1013%"/><g fill="none" transform="matrix(-1 0 0 -1 32 132)"><path d="m0 127.3v2.88c0 1 7.16 1.82 16 1.82s16-.82 16-1.82v-2.88z" fill="url(#b)"/><ellipse cx="16" cy="127.3" fill="url(#c)" rx="16" ry="1.82"/><path d="m22.12 126.26c0 1.04-12.24 1.24-12.24 0s1.12-112.4 1.12-112.4l5-13.86 4.98 13.86s1.14 111.36 1.14 112.4z" fill="url(#d)"/><path d="m16 0v16c-.0629485.722758-.4575781 1.3754394-1.0683564 1.766964-.6107783.3915245-1.3686148.4776034-2.0516436.233036-.7463626-1.3224514-1.3754342-2.7077472-1.88-4.14z" fill="url(#e)"/></g></svg>

<?xml version="1.0" encoding="UTF-8"?>
<svg width="32px" height="132px" viewBox="0 0 32 132" version="1.1" xmlns="http://www.w3.org/2000/svg" xmlns:xlink="http://www.w3.org/1999/xlink">
    <!-- Generator: Sketch 45.2 (43514) - http://www.bohemiancoding.com/sketch -->
    <title>Nail</title>
    <desc>Created with Sketch.</desc>
    <defs>
        <linearGradient x1="50%" y1="0%" x2="50%" y2="100%" id="linearGradient-1">
            <stop stop-color="#97B4C5" offset="0%"></stop>
            <stop stop-color="#90ADBE" offset="18%"></stop>
            <stop stop-color="#7B99AB" offset="46%"></stop>
            <stop stop-color="#5A788D" offset="79%"></stop>
            <stop stop-color="#416076" offset="100%"></stop>
        </linearGradient>
        <linearGradient x1="900%" y1="6374%" x2="900%" y2="6556%" id="linearGradient-2">
            <stop stop-color="#97B4C5" offset="0%"></stop>
            <stop stop-color="#90ADBE" offset="18%"></stop>
            <stop stop-color="#7B99AB" offset="46%"></stop>
            <stop stop-color="#5A788D" offset="79%"></stop>
            <stop stop-color="#416076" offset="100%"></stop>
        </linearGradient>
        <linearGradient x1="594%" y1="3278%" x2="1206%" y2="3278%" id="linearGradient-3">
            <stop stop-color="#97B4C5" offset="0%"></stop>
            <stop stop-color="#90ADBE" offset="18%"></stop>
            <stop stop-color="#7B99AB" offset="46%"></stop>
            <stop stop-color="#5A788D" offset="79%"></stop>
            <stop stop-color="#416076" offset="100%"></stop>
        </linearGradient>
        <linearGradient x1="775%" y1="100%" x2="775%" y2="1013%" id="linearGradient-4">
            <stop stop-color="#97B4C5" offset="0%"></stop>
            <stop stop-color="#90ADBE" offset="18%"></stop>
            <stop stop-color="#7B99AB" offset="46%"></stop>
            <stop stop-color="#5A788D" offset="79%"></stop>
            <stop stop-color="#416076" offset="100%"></stop>
        </linearGradient>
    </defs>
    <g id="Page-1" stroke="none" stroke-width="1" fill="none" fill-rule="evenodd">
        <g id="Nail" transform="translate(16.000000, 66.000000) rotate(180.000000) translate(-16.000000, -66.000000) " fill-rule="nonzero">
            <path d="M0,127.3 L0,130.18 C0,131.18 7.16,132 16,132 C24.84,132 32,131.18 32,130.18 L32,127.3 L0,127.3 Z" id="Shape" fill="url(#linearGradient-1)"></path>
            <ellipse id="Oval" fill="url(#linearGradient-2)" cx="16" cy="127.3" rx="16" ry="1.82"></ellipse>
            <path d="M22.12,126.26 C22.12,127.3 9.88,127.5 9.88,126.26 C9.88,125.02 11,13.86 11,13.86 L16,0 L20.98,13.86 C20.98,13.86 22.12,125.22 22.12,126.26 Z" id="Shape" fill="url(#linearGradient-3)"></path>
            <path d="M16,0 L16,16 C15.9370515,16.722758 15.5424219,17.3754394 14.9316436,17.766964 C14.3208653,18.1584885 13.5630288,18.2445674 12.88,18 C12.1336374,16.6775486 11.5045658,15.2922528 11,13.86 L16,0 Z" id="Shape" fill="url(#linearGradient-4)"></path>
        </g>
    </g>
</svg>
